X:1
T:James Gibb editions
T:Welcome, happy morning - Barnby
%%score [ ( 1 2 ) ( 3 4 ) ]
L:1/8
Q:1/4=90
M:4/4
K:Eb
V:1 treble nm="Midi_74"
V:2 treble 
V:3 bass nm="Midi_74"
V:4 bass 
V:1
"^Salve festa dies (11 11. 11 11. 11)""^Welcome, happy morning""^Joseph Barnby\n(1838-96)""^John Ellerton\n(1826-93)" B2 B2 e2 d2 | %1
w: |
 e4 B4 | G2 EF G2 F2 | E8 || F2 F2 G2 =A2 | B4 c4 | de f2 B2 c2 | B8 ||[M:4/4] d3 d c2 B2 | %9
w: ||||||||
 B4 =A4 | e3 e d2 c2 | B8 || f2 f2 e2 d2 | c2 d2 e2 G2 | B4 =A4 | B8 ||"^Refrain" e2 d2 e2 B2 | %17
w: |||||||Wel- come, hap- py|
 G2 A2 B2 E2 | G4 F4 | E8 || E4 E4 |] %21
w: mor- ning! Age to|age shall|say.|A- men.|
V:2
 G2 EF G2 F2 | G4 F4 | E2 E2 E2 D2 | E8 || C2 F2 F2 F2 | F4 =E4 | F2 B2 B2 =A2 | B8 || %8
[M:4/4] B3 B =A2 G2 | G4 G4 | G3 G ^F2 F2 | G8 || F2 F2 B,2 D2 | G2 F2 E2 G2 | F4 F4 | F8 || %16
 E2 F2 E2 D2 | E2 E2 E2 E2 | E4 D4 | E8 || C4 B,4 |] %21
V:3
 B,2 G,A, B,2 A,2 | B,4 B,4 | B,2 C2 B,2 A,2 | G,8 || =A,2 A,2 B,2 C2 | B,4 B,4 | B,2 D2 D2 E2 | %7
 D8 ||[M:4/4] B,3 B, C2 D2 | E4 E4 | C3 C D2 D2 | D8 || B,2 B,2 B,2 B,2 | E2 =B,2 C2 C2 | D4 E4 | %15
 D8 || %16
"^1. Welcome, happy morning! age to age shall say:\nHell today is vanquished, Heav’n is won today!\nLo! the dead is living, God forevermore!\nHim, their true Creator, all His works adore!\n\nR: Welcome, happy morning! Age to age shall say.\n\n2. Earth her joy confesses, clothing her for spring,\nAll fresh gifts returned with her returning King:\nBloom in every meadow, leaves on every bough,\nSpeak His sorrow ended, hail His triumph now. R:\n\n3. Months in due succession, days of lengthening light,\nHours and passing moments praise Thee in their flight.\nBrightness of the morning, sky and fields and sea,\nVanquisher of darkness, bring their praise to Thee. R:" B,2 B,2 B,2 B,2 | %17
 B,2 C2 B,2"^4. Maker and Redeemer, life and health of all,\nThou from heaven beholding human natures fall,\nOf the Fathers Godhead true and only Son,\nMankind to deliver, manhood didst put on. R:\n\n5. Thou, of life the Author, death didst undergo,\nTread the path of darkness, saving strength to show;\nCome, then True and Faithful, now fulfill Thy Word;\nTis Thine own third morning; rise, O buried Lord! R:\n\n6. Loose the souls long prisoned, bound with Satans chain;\nAll that now is fallen raise to life again;\nShow Thy face in brightness, bid the nations see;\nBring again our daylight: day returns with Thee! R:" C2 | %18
 B,4 A,4 | G,8 || A,4 G,4 |] %21
V:4
 E,2 E,2 E,2 E,2 | E,4 D,4 | E,2 A,2 B,2 B,,2 | E,8 || E,2 E,2 E,2 E,2 | D,4 G,4 | %6
 F,2 F,2 F,2 F,2 | B,8 ||[M:4/4] G,3 G, =A,2 B,2 | C4 C4 | =A,3 A, D2 D,2 | G,8 || %12
 D,2 D,2 G,2 F,2 | E,2 D,2 C,2 E,2 | F,4 F,4 | (B,4 !courtesy!_A,4) || G,2 A,2 G,2 F,2 | %17
 E,2 C,2 G,,2 A,,2 | B,,4 B,,4 | E,8 || A,,4 [E,,E,]4 |] %21

